X:1
T:Title
%%score { ( 1 4 ) | ( 2 3 ) }
L:1/8
M:4/4
K:Bb
V:1 treble nm="Grand Piano"
V:4 treble 
V:2 bass 
V:3 bass 
V:1
 z8[Q:1/4=86] | z2 [DF]>F [DF]2 (3CB,[K:bass]G, | z z/[K:treble] F/ F>F F2 (3G,[K:bass]F,D, | %3
 z2[K:treble] A>A A2[K:bass] (3E,D,C, | z2[K:treble] B>B B2[K:bass] (3B,,D,F, | %5
 B,2[K:treble] F>F [DF]2 (3CB,[K:bass]G, | z2[K:treble] F>F F2[K:bass] (3C,D,E, | %7
 z2[K:treble] F>F F>[K:bass]E, D,>C, |[M:3/4] z2 D>[K:treble]D D2 | A>B c3 F | F>c [DB]4 | %11
 [DB]>[Ec] [Fd]3 [FB] | [EA]>[DB] c4 | d>e f3 [Fd] |[M:2/4] [Fc]>[B,FB] [GB]2 |[M:1/4] G2 | %16
[M:4/4][K:bass] (3C,D,E, z2[K:treble] F>F F>[K:bass]E, | %17
[M:7/8] D,>C, z2 D>DD-[Q:1/4=85][Q:1/4=83][Q:1/4=82][Q:1/4=81][Q:1/4=80][Q:1/4=78][Q:1/4=77][Q:1/4=76][Q:1/4=75][Q:1/4=73][Q:1/4=72][Q:1/4=71][Q:1/4=70][Q:1/4=68] | %18
 D2 z z z z2[Q:1/4=67][Q:1/4=66] |] %19
V:2
 z4 z2 (3B,,D,F, | B,2 z z/ D/ B,>B, z2 | z z/ [A,E]/ [A,E]>[A,E] [A,E]2 z2 | %3
 z2 [F,E]>[F,E] [F,E]2 z2 | z2 [F,D]>[F,D] [F,D]2 z2 | z2 D>D B,>B, z2 | z2 [A,E]>[A,E] [A,E]2 z2 | %7
 z2 [A,C]>[A,C] [A,C]2 z2 |[M:3/4] z2 [F,B,]>[F,B,] [F,B,]2 | [F,C]>[F,D] [F,A,E]3 [F,A,E] | %10
 [F,A,E]>[F,A,E] [B,,B,]4 | [B,,B,]>[B,,B,] [B,,B,]3 [D,B,] | [C,F,]>[B,,B,][K:treble] [F,A,F]4 | %13
 [B,F]>[B,CF] [B,DF]3[K:bass] [B,,B,] |[M:2/4] [C,A,]>D, z2 |[M:1/4] E2 | %16
[M:4/4] z4 [A,C]>[A,C] [A,C]2 |[M:7/8] z z z2 [F,B,]>[F,B,][F,B,]- | [F,B,]2 z z z z2 |] %19
V:3
 x8 | z2 B,2 z4 | x8 | x8 | x8 | z2 B,2 z4 | x8 | x8 |[M:3/4] x6 | x6 | x6 | x6 | x2[K:treble] x4 | %13
 x5[K:bass] x |[M:2/4] z2 E,2- |[M:1/4] E,2 |[M:4/4] x8 |[M:7/8] x7 | x7 |] %19
V:4
 x8 | x22/3[K:bass] x2/3 | F,6[K:treble] z2[K:bass] | C,6[K:treble][K:bass] z2 | %4
 B,,6[K:treble][K:bass] z2 | x2[K:treble] x16/3[K:bass] x2/3 | F,6[K:treble][K:bass] z2 | %7
 F,6[K:treble][K:bass] z2 |[M:3/4] B,,6[K:treble] | x6 | x6 | x6 | x6 | x6 |[M:2/4] z2 B,2- | %15
[M:1/4] B,2 |[M:4/4][K:bass] z2 F,6[K:treble][K:bass] |[M:7/8] z2 B,,- B,,- B,,3- | %18
 B,,2 z z z z2 |] %19

